src/pics/icons/breeze/actions/22/table.svg

<?xml version="1.0" encoding="UTF-8" standalone="no"?>
<!-- Created with Inkscape (http://www.inkscape.org/) -->

<svg
   xmlns:dc="http://purl.org/dc/elements/1.1/"
   xmlns:cc="http://creativecommons.org/ns#"
   xmlns:rdf="http://www.w3.org/1999/02/22-rdf-syntax-ns#"
   xmlns:svg="http://www.w3.org/2000/svg"
   xmlns="http://www.w3.org/2000/svg"
   xmlns:sodipodi="http://sodipodi.sourceforge.net/DTD/sodipodi-0.dtd"
   xmlns:inkscape="http://www.inkscape.org/namespaces/inkscape"
   width="22"
   height="22"
   id="svg3760"
   version="1.1"
   inkscape:version="0.91 r13725"
   sodipodi:docname="table.svg">
  <defs
     id="defs3762" />
  <sodipodi:namedview
     id="base"
     pagecolor="#ffffff"
     bordercolor="#666666"
     borderopacity="1.0"
     inkscape:pageopacity="0.0"
     inkscape:pageshadow="2"
     inkscape:zoom="22.627417"
     inkscape:cx="4.9250513"
     inkscape:cy="18.235797"
     inkscape:document-units="px"
     inkscape:current-layer="svg3760"
     showgrid="true"
     fit-margin-top="0"
     fit-margin-left="0"
     fit-margin-right="0"
     fit-margin-bottom="0"
     inkscape:window-width="1280"
     inkscape:window-height="960"
     inkscape:window-x="-8"
     inkscape:window-y="-3"
     inkscape:window-maximized="1"
     inkscape:showpageshadow="false"
     showguides="true">
    <sodipodi:guide
       position="4.1796875e-06,21.999997"
       orientation="22,0"
       id="guide4116" />
    <sodipodi:guide
       position="4.1796875e-06,-2.6953124e-06"
       orientation="0,22"
       id="guide4118" />
    <sodipodi:guide
       position="22.000004,-2.6953124e-06"
       orientation="-22,0"
       id="guide4120" />
    <sodipodi:guide
       position="22.000004,21.999997"
       orientation="0,-22"
       id="guide4122" />
    <sodipodi:guide
       position="2.0000042,19.999997"
       orientation="18,0"
       id="guide4124" />
    <sodipodi:guide
       position="20.000004,1.9999973"
       orientation="-18,0"
       id="guide4128" />
    <sodipodi:guide
       position="20.000004,19.999997"
       orientation="0,-18"
       id="guide4130" />
    <sodipodi:guide
       position="3.0000042,18.999997"
       orientation="16,0"
       id="guide4132" />
    <sodipodi:guide
       position="3.0000042,2.9999973"
       orientation="0,16"
       id="guide4134" />
    <sodipodi:guide
       position="19.000004,2.9999973"
       orientation="-16,0"
       id="guide4136" />
    <sodipodi:guide
       position="45,19"
       orientation="0,-16"
       id="guide4138" />
    <inkscape:grid
       type="xygrid"
       id="grid4140"
       empspacing="5"
       visible="true"
       enabled="true"
       snapvisiblegridlinesonly="true" />
  </sodipodi:namedview>
  <metadata
     id="metadata3765">
    <rdf:RDF>
      <cc:Work
         rdf:about="">
        <dc:format>image/svg+xml</dc:format>
        <dc:type
           rdf:resource="http://purl.org/dc/dcmitype/StillImage" />
        <dc:title />
      </cc:Work>
    </rdf:RDF>
  </metadata>
  <path
     inkscape:connector-curvature="0"
     id="path4413"
     d="M 3,3 3,18 19,18 19,3 3,3 Z M 4,4 8,4 8,5 4,5 4,4 Z m 5,0 4,0 0,1 -4,0 0,-1 z m 5,0 4,0 0,1 -4,0 0,-1 z M 4,6 8,6 8,7 4,7 4,6 Z m 5,0 4,0 0,1 -4,0 0,-1 z m 5,0 4,0 0,1 -4,0 0,-1 z M 4,8 8,8 8,9 4,9 4,8 Z m 5,0 4,0 0,1 -4,0 0,-1 z m 5,0 4,0 0,1 -4,0 0,-1 z m -10,2 4,0 0,1 -4,0 0,-1 z m 5,0 4,0 0,1 -4,0 0,-1 z m 5,0 4,0 0,1 -4,0 0,-1 z m -10,2 4,0 0,1 -4,0 0,-1 z m 5,0 4,0 0,1 -4,0 0,-1 z m 5,0 4,0 0,1 -4,0 0,-1 z m -10,2 4,0 0,1 -4,0 0,-1 z m 5,0 4,0 0,1 -4,0 0,-1 z m 5,0 4,0 0,1 -4,0 0,-1 z m -10,2 4,0 0,1 -4,0 0,-1 z m 5,0 4,0 0,1 -4,0 0,-1 z m 5,0 4,0 0,1 -4,0 0,-1 z"
     style="color:#000000;display:inline;overflow:visible;visibility:visible;fill:#2c3e50;fill-opacity:1;fill-rule:nonzero;stroke:none;stroke-width:2;marker:none;enable-background:accumulate" />
</svg>

<?xml version="1.0" encoding="UTF-8" standalone="no"?>
<!-- Created with Inkscape (http://www.inkscape.org/) -->

<svg
   xmlns:dc="http://purl.org/dc/elements/1.1/"
   xmlns:cc="http://creativecommons.org/ns#"
   xmlns:rdf="http://www.w3.org/1999/02/22-rdf-syntax-ns#"
   xmlns:svg="http://www.w3.org/2000/svg"
   xmlns="http://www.w3.org/2000/svg"
   xmlns:sodipodi="http://sodipodi.sourceforge.net/DTD/sodipodi-0.dtd"
   xmlns:inkscape="http://www.inkscape.org/namespaces/inkscape"
   width="22"
   height="22"
   id="svg3760"
   version="1.1"
   inkscape:version="0.48.5 r10040"
   sodipodi:docname="22-actions-kexi_table.svg">
  <defs
     id="defs3762" />
  <sodipodi:namedview
     id="base"
     pagecolor="#ffffff"
     bordercolor="#666666"
     borderopacity="1.0"
     inkscape:pageopacity="0.0"
     inkscape:pageshadow="2"
     inkscape:zoom="22.627417"
     inkscape:cx="11.708857"
     inkscape:cy="18.235797"
     inkscape:document-units="px"
     inkscape:current-layer="layer1"
     showgrid="true"
     fit-margin-top="0"
     fit-margin-left="0"
     fit-margin-right="0"
     fit-margin-bottom="0"
     inkscape:window-width="1280"
     inkscape:window-height="960"
     inkscape:window-x="-8"
     inkscape:window-y="-3"
     inkscape:window-maximized="1"
     inkscape:showpageshadow="false"
     showguides="true">
    <sodipodi:guide
       position="4.1796875e-06,21.999997"
       orientation="22,0"
       id="guide4116" />
    <sodipodi:guide
       position="4.1796875e-06,-2.6953124e-06"
       orientation="0,22"
       id="guide4118" />
    <sodipodi:guide
       position="22.000004,-2.6953124e-06"
       orientation="-22,0"
       id="guide4120" />
    <sodipodi:guide
       position="22.000004,21.999997"
       orientation="0,-22"
       id="guide4122" />
    <sodipodi:guide
       position="2.0000042,19.999997"
       orientation="18,0"
       id="guide4124" />
    <sodipodi:guide
       position="20.000004,1.9999973"
       orientation="-18,0"
       id="guide4128" />
    <sodipodi:guide
       position="20.000004,19.999997"
       orientation="0,-18"
       id="guide4130" />
    <sodipodi:guide
       position="3.0000042,18.999997"
       orientation="16,0"
       id="guide4132" />
    <sodipodi:guide
       position="3.0000042,2.9999973"
       orientation="0,16"
       id="guide4134" />
    <sodipodi:guide
       position="19.000004,2.9999973"
       orientation="-16,0"
       id="guide4136" />
    <sodipodi:guide
       position="45,19"
       orientation="0,-16"
       id="guide4138" />
    <inkscape:grid
       type="xygrid"
       id="grid4140"
       empspacing="5"
       visible="true"
       enabled="true"
       snapvisiblegridlinesonly="true" />
  </sodipodi:namedview>
  <metadata
     id="metadata3765">
    <rdf:RDF>
      <cc:Work
         rdf:about="">
        <dc:format>image/svg+xml</dc:format>
        <dc:type
           rdf:resource="http://purl.org/dc/dcmitype/StillImage" />
        <dc:title />
      </cc:Work>
    </rdf:RDF>
  </metadata>
  <g
     inkscape:label="Capa 1"
     inkscape:groupmode="layer"
     id="layer1"
     transform="translate(-553.72253,-583.11926)">
    <g
       transform="translate(98.74824,50.97997)"
       id="layer1-0"
       inkscape:label="Capa 1" />
    <path
       style="color:#000000;fill:#2c3e50;fill-opacity:1;fill-rule:nonzero;stroke:none;stroke-width:2;marker:none;visibility:visible;display:inline;overflow:visible;enable-background:accumulate"
       d="M 3 3 L 3 18 L 19 18 L 19 3 L 3 3 z M 4 4 L 8 4 L 8 5 L 4 5 L 4 4 z M 9 4 L 13 4 L 13 5 L 9 5 L 9 4 z M 14 4 L 18 4 L 18 5 L 14 5 L 14 4 z M 4 6 L 8 6 L 8 7 L 4 7 L 4 6 z M 9 6 L 13 6 L 13 7 L 9 7 L 9 6 z M 14 6 L 18 6 L 18 7 L 14 7 L 14 6 z M 4 8 L 8 8 L 8 9 L 4 9 L 4 8 z M 9 8 L 13 8 L 13 9 L 9 9 L 9 8 z M 14 8 L 18 8 L 18 9 L 14 9 L 14 8 z M 4 10 L 8 10 L 8 11 L 4 11 L 4 10 z M 9 10 L 13 10 L 13 11 L 9 11 L 9 10 z M 14 10 L 18 10 L 18 11 L 14 11 L 14 10 z M 4 12 L 8 12 L 8 13 L 4 13 L 4 12 z M 9 12 L 13 12 L 13 13 L 9 13 L 9 12 z M 14 12 L 18 12 L 18 13 L 14 13 L 14 12 z M 4 14 L 8 14 L 8 15 L 4 15 L 4 14 z M 9 14 L 13 14 L 13 15 L 9 15 L 9 14 z M 14 14 L 18 14 L 18 15 L 14 15 L 14 14 z M 4 16 L 8 16 L 8 17 L 4 17 L 4 16 z M 9 16 L 13 16 L 13 17 L 9 17 L 9 16 z M 14 16 L 18 16 L 18 17 L 14 17 L 14 16 z "
       transform="translate(553.72253,583.11926)"
       id="path4413" />
    <g
       transform="matrix(1.3333333,0,0,1.3333333,-42.243186,-134.06646)"
       id="layer1-0-5"
       inkscape:label="Capa 1" />
  </g>
</svg>
